X: 9432
T: Danny Green's
R: polka
M: 2/4
K: Dmajor
AF A2|BG B2|BA ce|ed f/e/d/B/|
AF A>A|BG B2|B/A/B/c/ de|ed d>B:|
Ad f2|fe e2|ef ga|ba a/b/a/g/|
ef fg|fe e2|ef gc|ed d>B:|

